X:1
T:Stand Up and Bless the Lord
T:Stand Up and Bless the Lord
%%score ( 1 2 ) ( 3 4 )
L:1/8
M:4/4
K:F
V:1 treble nm="Piano" snm="Pno."
V:2 treble 
V:3 bass nm="Piano" snm="Pno."
V:4 bass 
V:1
 [A,C]2 | [CF]2 [CF]2 [CA]2 [CG][=B,F] | [CG]6 AB | [Fc]2 [EB][FA] B2 [FA]2 | [EG]6 | [Cc]2 | %6
w: 1~Stand|up and bless the _|Lord you _|peo- ple _ of his|choice;|stand|
w: 2~O|for the li- ving _|flame, from _|God's own _ al- tar|brought,|to|
w: 3~God|is our strength and _|song, and _|his sal- * va- tion|ours;|then|
w: 4~Stand|up and bless the _|Lord, the _|Lord your _ God a-|dore;|stand|
 [CA]2 [CF]2 [CG]2 C2 | [CF]2 [DA]2 [Ec]2 [Fc]2 | [Fd]2 cB [FA]2 [EG]2 | F6 |] %10
w: up and bless the|Lord your God with|heart and _ soul and|voice.|
w: touch our lips, our|minds in- spire, and|wing to * heaven our|thought|
w: be his love in|Christ pro- claimed with|all our _ ran- somed|powers.|
w: up and bless his|glo- rious name, both|now and _ e- ver-|more.|
V:2
 x2 | x8 | x6 C2 | x4 DE x2 | x6 | x2 | x6 C2 | x8 | x2 F2 x4 | F6 |] %10
V:3
 [F,,F,]2 | [A,,F,]2 [F,,A,]2 F,2 G,2 | [C,E,]6 C2 | [A,C]2 C2 [G,B,]2 [F,C]2 | [C,C]6 | [E,G,]2 | %6
 F,2 [A,,F,]2 [C,E,]2 [E,G,]2 | [F,A,]2 [D,F,]2 [C,G,]2 [A,,C]2 | %8
 [B,,B,]2 [A,,C][B,,D] [C,C]2 [C,B,]2 | [F,,A,]6 |] %10
V:4
 x2 | x4 F,2 E,D, | x6 F,G, | x2 G,F, x4 | x6 | x2 | F,2 x6 | x8 | x8 | x6 |] %10

